src/img/first-screen/gradient-line-phone.svg

<svg width="320" preserveAspectRatio="none" height="162" viewBox="0 0 320 162" fill="none" xmlns="http://www.w3.org/2000/svg">
<path d="M670.227 0.704445L670.979 27.3193C507.095 39.7402 370.412 102.612 189.135 108.714C131.731 110.056 98.3924 103.907 -14.0092 80.8671L-14.0526 79.329L-11.609 79.7264C106.392 98.97 140.307 103.983 198.394 100.335C256.279 96.1343 309.093 86.292 359.599 74.2291C415.169 60.9502 467.811 45.0019 521.114 30.9474C569.401 18.1542 618.248 6.97791 670.227 0.704445Z" fill="url(#paint0_linear_0_3907)"/>
<path d="M638.444 24.0488V162H-8.79688V80.1025L-6.50357 80.5435C104.237 101.889 136.078 107.534 190.941 105.638C245.628 103.212 295.727 95.3177 343.622 85.2624C393.898 74.722 441.749 61.8001 489.953 50.3336C492.334 49.7603 494.672 49.187 497.053 48.6577C542.919 37.8528 589.27 28.5913 638.444 24.0488Z" fill="white"/>
<defs>
<linearGradient id="paint0_linear_0_3907" x1="-42.9929" y1="67.4354" x2="111.442" y2="-241.061" gradientUnits="userSpaceOnUse">
<stop stop-color="#009EE2"/>
<stop offset="1" stop-color="#273992"/>
</linearGradient>
</defs>
</svg>

<svg xmlns="http://www.w3.org/2000/svg" fill="none" preserveAspectRatio="none" viewBox="0 0 320 162"><path d="m670.227.704.752 26.615c-163.884 12.421-300.567 75.293-481.844 81.395-57.404 1.342-90.743-4.807-203.144-27.847l-.044-1.538 2.444.397c118.001 19.244 151.916 24.257 210.003 20.609 57.885-4.2 110.699-14.043 161.205-26.106 55.57-13.279 108.212-29.227 161.515-43.282C569.401 18.154 618.248 6.977 670.227.704Z" fill="url(#a)"/><path d="M638.444 24.049V162H-8.796V80.103l2.292.44c110.741 21.346 142.582 26.991 197.445 25.095 54.687-2.426 104.786-10.32 152.681-20.376 50.276-10.54 98.127-23.462 146.331-34.928 2.381-.574 4.719-1.147 7.1-1.676 45.866-10.805 92.217-20.067 141.391-24.61Z" fill="#fff"/><defs><linearGradient id="a" x1="-42.993" x2="111.442" y1="67.435" y2="-241.061" gradientUnits="userSpaceOnUse"><stop stop-color="#009EE2"/><stop offset="1" stop-color="#273992"/></linearGradient></defs></svg>
